modules/stroke-7/icons/help2.svg

<?xml version="1.0" encoding="utf-8"?>
<!-- Generated by IcoMoon.io -->
<!DOCTYPE svg PUBLIC "-//W3C//DTD SVG 1.1//EN" "http://www.w3.org/Graphics/SVG/1.1/DTD/svg11.dtd">
<svg version="1.1" xmlns="http://www.w3.org/2000/svg" xmlns:xlink="http://www.w3.org/1999/xlink" width="32" height="32" viewBox="0 0 32 32">
<g id="icomoon-ignore">
</g>
<path d="M16 3.205c-7.066 0-12.795 5.728-12.795 12.795s5.729 12.794 12.795 12.795c7.067-0.001 12.795-5.729 12.795-12.795s-5.729-12.795-12.795-12.795zM15.999 21.864c-3.233 0-5.863-2.631-5.863-5.864s2.631-5.864 5.864-5.864h0.001c3.233 0 5.863 2.631 5.863 5.864s-2.631 5.864-5.865 5.864zM22.395 13.327l4.028-2.693c0.832 1.609 1.305 3.433 1.305 5.366 0 1.909-0.461 3.71-1.273 5.305l-4.035-2.699c0.327-0.805 0.511-1.683 0.511-2.606 0-0.948-0.191-1.85-0.535-2.673zM25.89 9.708l-3.99 2.668c-0.58-0.942-1.377-1.733-2.325-2.305l2.669-3.991c1.466 0.926 2.712 2.167 3.645 3.629zM21.316 5.55l-2.698 4.034c-0.808-0.33-1.69-0.515-2.617-0.515h-0.001c-0.927 0-1.809 0.185-2.617 0.515l-2.698-4.034c1.597-0.816 3.402-1.279 5.315-1.279s3.719 0.463 5.316 1.279zM9.756 6.078l2.67 3.992c-0.95 0.574-1.748 1.367-2.329 2.311l-3.991-2.669c0.934-1.464 2.182-2.707 3.65-3.634zM5.574 10.639l4.029 2.694c-0.343 0.822-0.533 1.722-0.533 2.667 0 0.92 0.183 1.797 0.509 2.599l-4.036 2.7c-0.81-1.593-1.27-3.393-1.27-5.299 0-1.931 0.472-3.753 1.303-5.361zM6.069 22.229l3.992-2.669c0.576 0.959 1.377 1.766 2.331 2.35l-2.669 3.99c-1.473-0.937-2.724-2.193-3.654-3.671zM10.65 26.432l2.695-4.030c0.818 0.34 1.713 0.529 2.654 0.529 0.001 0 0.001 0 0.001 0 0.941 0 1.838-0.189 2.656-0.529l2.695 4.030c-1.606 0.827-3.424 1.297-5.351 1.297s-3.745-0.47-5.35-1.297zM22.278 25.899l-2.669-3.991c0.952-0.583 1.751-1.387 2.327-2.344l3.992 2.67c-0.93 1.475-2.179 2.729-3.65 3.665z" fill="#000000"></path>
</svg>

<svg xmlns="http://www.w3.org/2000/svg" width="32" height="32" viewBox="0 0 32 32"><path d="M16 3.205C8.934 3.205 3.205 8.933 3.205 16S8.934 28.794 16 28.795c7.067-.001 12.795-5.729 12.795-12.795S23.066 3.205 16 3.205zm-.001 18.659c-3.233 0-5.863-2.631-5.863-5.864s2.631-5.864 5.864-5.864h.001c3.233 0 5.863 2.631 5.863 5.864s-2.631 5.864-5.865 5.864zm6.396-8.537l4.028-2.693A11.65 11.65 0 0 1 27.728 16c0 1.909-.461 3.71-1.273 5.305l-4.035-2.699a6.912 6.912 0 0 0-.024-5.279zm3.495-3.619l-3.99 2.668a6.944 6.944 0 0 0-2.325-2.305l2.669-3.991a11.808 11.808 0 0 1 3.645 3.629zM21.316 5.55l-2.698 4.034a6.902 6.902 0 0 0-2.617-.515H16c-.927 0-1.809.185-2.617.515L10.685 5.55c1.597-.816 3.402-1.279 5.315-1.279s3.719.463 5.316 1.279zm-11.56.528l2.67 3.992a6.965 6.965 0 0 0-2.329 2.311L6.106 9.712a11.819 11.819 0 0 1 3.65-3.634zm-4.182 4.561l4.029 2.694a6.907 6.907 0 0 0-.024 5.266l-4.036 2.7A11.659 11.659 0 0 1 4.273 16c0-1.931.472-3.753 1.303-5.361zm.495 11.59l3.992-2.669a6.959 6.959 0 0 0 2.331 2.35L9.723 25.9a11.81 11.81 0 0 1-3.654-3.671zm4.581 4.203l2.695-4.03c.818.34 1.713.529 2.654.529H16c.941 0 1.838-.189 2.656-.529l2.695 4.03c-1.606.827-3.424 1.297-5.351 1.297s-3.745-.47-5.35-1.297zm11.628-.533l-2.669-3.991a6.956 6.956 0 0 0 2.327-2.344l3.992 2.67a11.821 11.821 0 0 1-3.65 3.665z"/></svg>
